X:1
T:James Gibb editions
T:Hic est vere martyr - Clemens non Papa
T:#
%%score [ 1 2 3 4 ]
L:1/8
Q:1/4=96
M:4/4
K:Bb
V:1 treble nm="Soprano" snm="S"
V:2 treble nm="Alto" snm="A"
V:3 treble-8 nm="Tenor" snm="T"
V:4 bass nm="Bass" snm="B"
V:1
"^Hic est vere martyr""^Jacobus Clemens non Papa\n(1510-1556)" z8 | z4 F4 | F2 (F4 B2- | %3
w: |Hic|est ve\- *|
 B2) A2 (c2 d2) | c2 (F3 G AB | c2) (d4 cB | A2) c4 B2 | (A3 G/F/ G4) | A4 z2 c2- | c2 c2 d2 e2 | %10
w: * re mar\- *|tyr, hic * * *|* est * *|* ve- re|mar\- * * *|tyr, qui|* pro Chri- sti|
 f6 e2 | c2 (e2 d2 c2- | c2 B2 A2 G2- | G2 F2 G2 G2- | G2 G2 A2 B2 | c6 B2 | A4 G3 A | %17
w: no- mi-|ne, no\- * *||* mi- ne, qui|* pro Chri- sti|no- mi-|ne, qui pro|
 B2 A2 (B2 c2- | c2) A2 B2 A2- | A2 G4 F2 | G3 F E4 | D2 d4 c2 | A4 B2 c2- | c2 BA) G2 (B2- | %24
w: Chri- sti no\- *|* mi- ne, qui|* pro Chri-|sti no- mi-|ne san- gui-|nem su\- *|* * * um fu\-|
 B2 A4 G2- | G2 F4 =E2) | F2 (B4 A2 | B3 A GF E2- | EF G4 FE) | F4 z4 | z2 E2 G4 | B2 B4 B2 | %32
w: ||dit, fu\- *|||dit,|qui mi-|nas ju- di-|
 (A2 F2 A2) A2 | G2 G2 (G4- | G4 A4) | z8 | z8 | z2 A4 B2 | c2 c2 c2 d2 | (c2 B2 A2 G2- | %40
w: cum * * non|ti- mu- it,||||nec ter-|re- nae di- gni-|ta\- * * *|
 GF F4 E2) | F2 G4 F2 | (E2 G4 F2- | F2 E2) F4 | B3 B B2 B2 | (d2 e3 d c2- | cB/A/ B4 AG | %47
w: |tis, di- gni-|ta\- * *|* * tis|glo- ri- am quae-|si\- * * *||
 A2 B3 A G2- | G2 F2) G4 | z2 G4 E2 | G2 B4 A2 | (G3 F/E/ DE) (F2- | F2 E2) (F3 G | A2 G2 d4) | %54
w: |* * vit,|sed ad|coe- le- sti-|a * * * * re\-|* * gna, *||
 z2 c4 B2 | c2 e4 d2 | c4 d4 | c8 | z2 B2 B2 B2 | B6 B2 | B2 A2 G2 (G2- | G2 c2) A2 B2 | %62
w: sed ad|coe- le- sti-|a re-|gna,|sed ad coe-|le- sti-|a re- gna fe\-|* * li- ci-|
 G2 F2 (G4 | A2 B3 A G2- | G2 ^F2) G4 | z8 | F4 B2 G2 | A2 (B3 A GF | G2) (A4 G2- | G2 F4 =E2) | %70
w: ter per- ve\-||* * nit,||fe- li- ci-|ter per\- * * *|* ve\- *||
 F4 z2 c2 | f2 d2 e4 | c2 d2 c4 | z4 F4 | B2 G2 A2[Q:1/4=95] (B2- | %75
w: nit, fe-|li- ci- ter|per- ve- nit,|fe-|li- ci- ter per\-|
[Q:1/4=94] B[Q:1/4=93]A[Q:1/4=92]G[Q:1/4=92]F[Q:1/4=91] G2)[Q:1/4=90] (A2- | %76
w: * * * * * ve\-|
[Q:1/4=88] A2[Q:1/4=86] G4[Q:1/4=84] F2- |[Q:1/4=83] F2[Q:1/4=82] =E2)[Q:1/4=82] !fermata!F4 |] %78
w: |* * nit.|
V:2
 z8 | z8 | z8 | z8 | C4 C2 (C2- | C2 F4) =E2 | (F3 G A2 G2- | G2 F4 =E2) | (F3 _E C2) (ED | %9
w: ||||Hic est ve\-|* * re|mar\- * * *||tyr, * * mar\- *|
 CB,A,G, F,2 G,2- | G,2 F,2) G,4 | G6 G2 | G2 G2 (F2 E2- | E2 (DC D2) D2 | E4 F2 G2- | G2 F2) G4 | %16
w: |* * tyr,|hic est|ve- re mar\- *|* tyr, * * ve-|re mar\- *|* * tyr,|
 z2 C4 C2 | D2 E2 (F3 E | C2 F2 E2 F2- | F2 B,2 (C4 | D4) z2 G2- | G2 F2 D2 E2 | F4 F2 E2 | %23
w: qui pro|Chri- sti no\- *||* mi- ne|* san\-|* gui- nem su-|um, san- gui-|
 C2 D2 E2 D2) | E2 F4 E2 | C2 D2 C4 | (D3 C/B,/ C4 | D4) (C4 | B,4) z4 | z4 z2 B,2 | C4 E2 E2- | %31
w: nem su\- * *|um, san- gui-|nem su- um|fu\- * * *|* dit,||qui|mi- nas ju\-|
 E2 E2 D3 B, | D2 D2 C2 (D2- | D2 C2) (B,2 C2- | C2) =B,2 C2 A,2- | A,2 B,2 C2 C2 | C2 D2 (C2 E2 | %37
w: * di- cum non|ti- mu- it, non|* * ti\- *|* mu- it, nec|* ter- re- nae|di- gni- ta\- *|
 D2) C2 z2 D2 | E2 F4 F2 | F3 G (F2 E2 | D2 C2 D2 CB, | A,2 G,2 A,2 B,2) | G,2 E2 D2 B,2 | %43
w: * tis, nec|ter- re- nae|di- gni- ta\- *|||tis, di- gni- ta-|
 C4 D3 D | D2 D2 (F3 E | D2 C2 (E2 F2) | G4 C2 F2- | FE D3 B, C2) | D4 z2 C2- | C2 B,2 C2 E2- | %50
w: tis glo- ri-|am quae- si\- *|* vit, quae\- *|si\- * *||vit, sed|* ad coe- le\-|
 E2 D2 (C4 | B,2 (D3 C A,B,) | C4 z2 C2- | CD E2 F4) | E4 z4 | G8 | E2 G2 B3 A | G4 A4 | G8 | %59
w: * sti- a|* re\- * * *|gna, re\-||gna,|sed|ad coe- le- sti-|a re-|gna,|
 z2 (G4 F2 | E2 F2) D4 | z2 C2 F2 D2 | E2 D4 (E2- | E2 D3 B, C2) | D2 D4 G2- | GE F2 (G_A) (G2- | %66
w: re\- *|* * gna|fe- li- ci-|ter per- ve\-||nit, fe- li\-|* ci- ter per\- * ve\-|
 GF F4 E2) | F4 B,2 E2- | E2 C2 D2 E2 | (C2 B,2 C3 B, | C2 D3 C C2- | C2 =B,2) C2 G2 | %72
w: |nit, fe- li\-|* ci- ter per|ve\- * * *||* * nit, fe-|
 A2 B2 G2 A2- | A2 (G4 F2- | F2 =E2) F4 | B,2 E4 C2 | D2 E2 (C2 B,2 | C4) !fermata!C4 |] %78
w: li- ci- ter per\-|* ve\- *|* * nit,|fe- li- ci-|ter per- ve\- *|* nit.|
V:3
 F4 F2 (F2- | F2 B4 A2) | B2 (d4 cB | c3 B A2 B2) | F6 (f2- | fedc B4) | c8 | z2 c2 c2 (c2- | %8
w: Hic est ve\-||re mar\- * *||tyr, mar\-||tyr,|hic est ve\-|
 cB A4 G2) | A4 (B2 c2- | c2 B2) c2 c2- | c2 c2 d2 e2 | d3 c c2 B2 | _A4 G4 | z8 | c3 c d2 e2 | %16
w: |re mar\- *|* * tyr, qui|* pro Chri- sti|no- mi- ne, no-|mi- ne,||qui pro Chri- sti|
 f6 e2 | f2 c2 (d2 c2 | A2) d4 c2 | (d2 e3 d c2- | c2) B2 (c4 | B4) z4 | z2 d4 c2 | A2 B2 c2 (B2- | %24
w: no- mi|ne, qui pro *|* Chri- sti|no\- * * *|* mi- ne||san- gui-|nem su- um fu\-|
 Bc d3 c B2 | A2 B2 G4 | B4) F4 | z4 E4 | G4 B2 B2- | B2 B2 A2 F2 | G2 _A2 G4 | z2 B4 d2 | %32
w: ||* dit,|qui|mi- nas ju\-|* di- cum non|ti- mu- it,|qui mi-|
 f2 f4 f2 | e2 c2 e2 e2 | (d3 e f4) | z2 F2 G2 A2- | A2 A2 A2 B2 | (A6 GF | G2 A4 B2) | F4 z4 | %40
w: nas ju- di-|cum non ti- mu-|it, * *|nec ter- re\-|* nae di- gni-|ta\- * *||tis,|
 z2 A4 B2 | c2 c2 c2 d2 | (c3 B A2) (GF | G4) B3 B | B2 B2 (d3 e | f2 e2 c4 | d2 e2) f2 c2- | %47
w: nec ter-|re- nae di- gni-|ta\- * * tis *|* glo- ri-|am quae- si\- *||* * vit, glo\-|
 c2 B2 G3 A | B2 A2 (G2 e2- | e2 d2 e2) c2 | z2 G4 F2 | G2 B3 A F2 | (G4 FGAB | cF c4 B2) | %54
w: * ri- am quae-|si- vit, quae- si\-|* * * vit,|sed ad|coe- le- sti- a|re\- * * * *||
 c4 e2 d2 | c2 c4 B2 | c2 (e2 dc f2- | f2 e2) f4 | B2 e4 d2 | e6 d2 | (B2 c4 B2) | c4 z2 G2 | %62
w: gna, sed ad|coe- le- sti-|a re\- * * *|* * gna|fe- li- ci-|ter per-|ve\- * *|nit, fe-|
 c2 A2 B2 c2- | c2 (B2 G4 | A4) G2 d2 | e2 c2 d2 e2 | (c2 d4 cB | c2 d2) G2 G2 | c2 A2 B2 c2 | %69
w: li- ci- ter per\-|* ve\- *|* nit, fe-|li- ci- ter per-|ve\- * * *|* * nit, fe-|li- ci- ter per|
 (A2 GF) G2 G2 | A2 F2 G2 A2 | F4 G2 c2 | f2 d2 e2 f2 | (d2 e2 c2 d2- | d2 cB c2 d2) | %75
w: ve\- * * nit, fe-|li- ci- ter per-|ve- nit, fe-|li- ci- ter per|ve\- * * *||
 G2 G2 c2 A2 | B2 c2 (A2 GF | G4) !fermata!F4 |] %78
w: nit, fe- li- ci-|ter per- ve\- * *|* nit.|
V:4
 z8 | z8 | z4 F,4 | F,2 (F,4 B,2- | B,2 A,G, A,2) F,2 | (A,2 B,2 G,4) | F,4 C,4 | C,4 (C,4 | %8
w: ||Hic|est ve\- *|* * * * re|mar\- * *|tyr, hic|est ve\-|
 F,6) E,2 | (F,3 E, D,2 C,2 | D,4) C,4 | z4 G,4- | G,2 G,2 A,2 B,2 | C6 B,2 | (C3 B, A,2 G,2 | %15
w: * re|mar\- * * *|* tyr,|qui|* pro Chri- sti|no- mi-|ne, * * *|
 A,4 G,4 | F,4) z4 | z4 z2 F,2- | F,2 F,2 G,2 A,2 | B,2 G,2 (_A,4 | G,4 C,4) | z8 | z8 | %23
w: ||qui|* pro Chri- sti|no- mi- ne||||
 z4 z2 G,2- | G,2 F,2 (D,2 E,2) | F,2 B,,2 C,4 | B,,4 z4 | B,,4 C,4 | E,2 E,4 E,2 | %29
w: san\-|* gui- nem *|su- um fu-|dit,|qui mi-|nas ju- di-|
 D,2 B,,2 C,2 _D,2 | C,8 | z2 E,2 G,2 B,2 | F,2 B,2 A,2 F,2 | G,2 A,2 (G,4- | G,4 F,4) | %35
w: cum non ti- mu-|it,|qui mi- nas|ju- di- cum non|ti- mu- it,||
 z2 D,2 E,2 F,2- | F,2 F,2 F,2 G,2 | (F,3 E, D,4 | C,2 F,4) B,,2 | z2 D,4 E,2 | F,2 F,2 F,2 G,2 | %41
w: nec ter- re\-|* nae di- gni-|ta\- * *|* * tis|nec ter-|re- nae di- gni-|
 (F,2 E,2 F,2 B,,2 | C,4 D,4 | C,4) B,,4- | B,,4 B,3 B, | B,2 C2 _A,4 | G,4 F,3 F, | F,2 G,2 (E,4 | %48
w: ta\- * * *||* tis|* glo- ri-|am quae- si-|vit, glo- ri-|am quae- si\-|
 D,4 E,3 F, | G,4) C,4 | z8 | z4 D,4 | C,4 D,2 F,2- | F,2 E,2 D,4 | (C,D,E,F, G,4) | C,4 z4 | %56
w: |* vit,||sed|ad coe- le\-|* sti- a|re\- * * * *|gna,|
 (C4 B,4 | C4) F,4 | z4 G,4 | E,2 G,2 B,3 A, | (G,2 F,2) G,4 | C,4 z4 | z2 D,2 G,2 E,2 | %63
w: re\- *|* gna,|sed|ad coe- le- sti-|a * re-|gna|fe- li- ci-|
 F,2 G,2 E,4 | D,4 z2 G,2 | C2 A,2 B,2 C2 | (_A,2 G,F, G,4) | F,2 B,,2 E,4 | C,2 F,4 E,2 | %69
w: ter per- ve-|nit, fe-|li- ci- ter per-|ve\- * * *|nit, fe- li-|ci- ter per-|
 (F,2 D,2) C,2 C,2 | F,2 D,2 E,2 F,2 | D,4 C,4 | z2 G,2 C2 A,2 | B,2 C2 (A,2 G,F, | G,4) F,2 B,,2 | %75
w: ve\- * nit, fe-|li- ci- ter per-|ve- nit,|fe- li- ci-|ter per- ve\- * *|* nit, fe-|
 E,4 C,2 F,2- | F,2 E,2 (F,2 D,2 | C,4) !fermata!F,4 |] %78
w: li- ci- ter|* per- ve\- *|* nit.|

